polaris-icons/icons/new-icons/CardReaderMajor.svg

<svg width="20" height="20" viewBox="0 0 20 20" fill="none" xmlns="http://www.w3.org/2000/svg">
<path fill-rule="evenodd" clip-rule="evenodd" d="M5.75 3.5C4.50736 3.5 3.5 4.50736 3.5 5.75V10.5C3.5 11.7426 4.50736 12.75 5.75 12.75H6.0702C6.02411 12.9929 6 13.2437 6 13.5V14.25C6 14.8023 6.44772 15.25 7 15.25H9.25V16C9.25 16.4142 9.58579 16.75 10 16.75C10.4142 16.75 10.75 16.4142 10.75 16V15.25H13C13.5523 15.25 14 14.8023 14 14.25V13.5C14 13.2437 13.9759 12.9929 13.9298 12.75H14.25C15.4926 12.75 16.5 11.7426 16.5 10.5V5.75C16.5 4.50736 15.4926 3.5 14.25 3.5H5.75ZM12.5 13.75V13.5C12.5 12.1193 11.3807 11 10 11C8.61929 11 7.5 12.1193 7.5 13.5V13.75H12.5ZM10 9.5C8.62516 9.5 7.41233 10.1936 6.69234 11.25H5.75C5.33579 11.25 5 10.9142 5 10.5V8.25H15V10.5C15 10.9142 14.6642 11.25 14.25 11.25H13.3077C12.5877 10.1936 11.3748 9.5 10 9.5ZM15 6.25V5.75C15 5.33579 14.6642 5 14.25 5H5.75C5.33579 5 5 5.33579 5 5.75V6.25H15Z" fill="#4A4A4A"/>
</svg>

<svg viewBox="0 0 20 20" xmlns="http://www.w3.org/2000/svg"><path fill-rule="evenodd" d="M5.75 3.5a2.25 2.25 0 0 0-2.25 2.25v4.75a2.25 2.25 0 0 0 2.25 2.25h.32c-.046.243-.07.494-.07.75v.75a1 1 0 0 0 1 1h2.25v.75a.75.75 0 0 0 1.5 0v-.75h2.25a1 1 0 0 0 1-1v-.75a4.02 4.02 0 0 0-.07-.75h.32a2.25 2.25 0 0 0 2.25-2.25v-4.75a2.25 2.25 0 0 0-2.25-2.25h-8.5Zm6.75 10.25v-.25a2.5 2.5 0 0 0-5 0v.25h5Zm-2.5-4.25a3.996 3.996 0 0 0-3.308 1.75h-.942a.75.75 0 0 1-.75-.75v-2.25h10v2.25a.75.75 0 0 1-.75.75h-.942a3.996 3.996 0 0 0-3.308-1.75Zm5-3.25v-.5a.75.75 0 0 0-.75-.75h-8.5a.75.75 0 0 0-.75.75v.5h10Z" fill="#5C5F62"/></svg>
